X: 3970
T: Blacksmith's Schottische, The
R: barndance
M: 4/4
K: Gmajor
DGBA G2 G2|GBdc B2 B2|ABcA FDEF|GFGE D2 D2|
DGBA G2 G2|GBdc B2 B2|ABcA FEDF|G2 B2 G4:|
e2 c2 e2 c2|dcBc d2 d2|cBAG FDEF|GABc d2 d2|
e2 c2 e2 c2|dcBc d2 d2|cBAG FDEF|G2 B2 G4:|

